images_sukapura_svg/cmd/sc_dbviewfunctions.svg

<svg viewBox="0 0 16 16" xmlns="http://www.w3.org/2000/svg" xmlns:xlink="http://www.w3.org/1999/xlink"><linearGradient id="a" gradientTransform="matrix(.79951909 0 0 .79951909 -1.770074 -1.601914)" gradientUnits="userSpaceOnUse" x1="7" x2="7" xlink:href="#b" y1="22" y2="2"/><linearGradient id="b" gradientTransform="translate(-11 -1)" gradientUnits="userSpaceOnUse" x1="14" x2="13.79661" y1="22" y2="2.135593"><stop offset="0" stop-color="#0040dd"/><stop offset="1" stop-color="#0a84ff"/></linearGradient><linearGradient id="c" gradientTransform="matrix(.79951909 0 0 .79951909 -2.770074 -1.601914)" gradientUnits="userSpaceOnUse" x1="18" x2="18" xlink:href="#b" y1="22" y2="12"/>


     /&amp;amp;gt;
 <path d="m1.0307693 15.987778 1.6820622-9.6308319h-1.71283159l.25641189-1.4666762h1.7025752l.1846165-1.312829q.2666684-1.6718057 1.2923161-2.61540156 1.0769301-.98462176 2.7487358-.96410881.5230803 0 1.3230855.17436011l-.2256425 1.54872796q-.4923109-.1025647-.9948783-.1230777-.9641088 0-1.5692409.6051321-.5948757.5948757-.7384663 1.5897539l-.1641037 1.097443h2.2974508l-.2564119 1.4666762h-2.2974508l-1.6718057 9.6308319z" fill="url(#a)"/><path d="m11.048956 10.613566 1.886732-2.6192278h2.049508l-3.063164 4.0250278 1.783146 3.980634h-1.834939l-1.117241-2.730212-1.9681201 2.730212h-2.0421096l3.1593508-4.143411-1.7239549-3.8622508h1.8349388z" fill="url(#c)"/></svg>

<?xml version="1.0" encoding="UTF-8" standalone="no"?>
<svg
   xmlns:dc="http://purl.org/dc/elements/1.1/"
   xmlns:cc="http://creativecommons.org/ns#"
   xmlns:rdf="http://www.w3.org/1999/02/22-rdf-syntax-ns#"
   xmlns:svg="http://www.w3.org/2000/svg"
   xmlns="http://www.w3.org/2000/svg"
   xmlns:xlink="http://www.w3.org/1999/xlink"
   xmlns:sodipodi="http://sodipodi.sourceforge.net/DTD/sodipodi-0.dtd"
   xmlns:inkscape="http://www.inkscape.org/namespaces/inkscape"
   viewBox="0 0 16 16"
   version="1.1"
   id="svg4"
   sodipodi:docname="sc_dbviewfunctions.svg"
   inkscape:version="0.92.3 (unknown)"
   inkscape:export-filename="/home/rizmut/Dokumen/Rizmut/Github/libreoffice-style-sukapura/images_sukapura/cmd/sc_dbviewfunctions.png"
   inkscape:export-xdpi="96"
   inkscape:export-ydpi="96"><metadata
   id="metadata10">
  <rdf:RDF>
    <cc:Work
       rdf:about="">
      <dc:format>image/svg+xml</dc:format>
      <dc:type
         rdf:resource="http://purl.org/dc/dcmitype/StillImage" />
      <dc:title></dc:title>
    </cc:Work>
  </rdf:RDF>
</metadata>
<defs
   id="defs8">
  <linearGradient
     gradientTransform="matrix(0.79951909,0,0,0.79951909,-1.7700739,-1.6019135)"
     inkscape:collect="always"
     xlink:href="#a"
     id="linearGradient853"
     x1="7"
     y1="22"
     x2="7"
     y2="2"
     gradientUnits="userSpaceOnUse" />
  <linearGradient
     gradientTransform="translate(-11,-1)"
     id="a"
     gradientUnits="userSpaceOnUse"
     x1="14"
     x2="13.79661"
     y1="22"
     y2="2.1355929">
    <stop
       offset="0"
       stop-color="#0040dd"
       id="stop1492" />
    <stop
       offset="1"
       stop-color="#0a84ff"
       id="stop1494" />
  </linearGradient>
  <linearGradient
     inkscape:collect="always"
     xlink:href="#a"
     id="linearGradient886"
     x1="7"
     y1="22"
     x2="7"
     y2="2"
     gradientUnits="userSpaceOnUse" />
  <linearGradient
     gradientTransform="matrix(0.79951909,0,0,0.79951909,-2.7700739,-1.6019135)"
     inkscape:collect="always"
     xlink:href="#a"
     id="linearGradient851"
     x1="18"
     y1="22"
     x2="18"
     y2="12"
     gradientUnits="userSpaceOnUse" />
  <linearGradient
     inkscape:collect="always"
     xlink:href="#a"
     id="linearGradient901"
     x1="18"
     y1="22"
     x2="18"
     y2="12"
     gradientUnits="userSpaceOnUse" />
</defs>
<sodipodi:namedview
   pagecolor="#ffffff"
   bordercolor="#666666"
   borderopacity="1"
   objecttolerance="10"
   gridtolerance="10"
   guidetolerance="10"
   inkscape:pageopacity="0"
   inkscape:pageshadow="2"
   inkscape:window-width="1366"
   inkscape:window-height="699"
   id="namedview6"
   showgrid="true"
   inkscape:zoom="14.75"
   inkscape:cx="-0.59020284"
   inkscape:cy="5.2096309"
   inkscape:window-x="0"
   inkscape:window-y="0"
   inkscape:window-maximized="1"
   inkscape:current-layer="svg4">
  <inkscape:grid
     type="xygrid"
     id="grid817" />
</sodipodi:namedview>


     /&amp;gt;
 <g
   aria-label="f"
   style="font-style:normal;font-weight:normal;font-size:21.00526428px;line-height:1.25;font-family:sans-serif;letter-spacing:0px;word-spacing:0px;fill:url(#linearGradient853);fill-opacity:1;stroke:none;stroke-width:0.52513152"
   id="text839">
  <path
     d="M 1.0307693,15.987778 2.7128315,6.3569461 H 0.99999991 L 1.2564118,4.8902699 H 2.958987 l 0.1846165,-1.312829 q 0.2666684,-1.6718057 1.2923161,-2.61540156 1.0769301,-0.98462176 2.7487358,-0.96410881 0.5230803,0 1.3230855,0.17436011 L 8.2820984,1.7210186 Q 7.7897875,1.6184539 7.2872201,1.5979409 q -0.9641088,0 -1.5692409,0.6051321 Q 5.1231035,2.7979487 4.9795129,3.7928269 L 4.8154092,4.8902699 H 7.11286 L 6.8564481,6.3569461 H 4.5589973 L 2.8871916,15.987778 Z"
     style="font-style:italic;font-variant:normal;font-weight:normal;font-stretch:normal;font-family:Roboto;-inkscape-font-specification:'Roboto Italic';fill:url(#linearGradient853);fill-opacity:1;stroke-width:0.52513152"
     id="path912" />
</g>
<g
   aria-label="x"
   style="font-style:normal;font-weight:normal;font-size:15.15304565px;line-height:1.25;font-family:sans-serif;letter-spacing:0px;word-spacing:0px;fill:url(#linearGradient851);fill-opacity:1;stroke:none;stroke-width:0.37882614"
   id="text843">
  <path
     d="m 11.048956,10.613566 1.886732,-2.6192278 h 2.049508 L 11.922032,12.019366 13.705178,16 H 11.870239 L 10.752998,13.269788 8.7848779,16 H 6.7427683 L 9.9021191,11.856589 8.1781642,7.9943382 h 1.8349388 z"
     style="font-style:italic;font-variant:normal;font-weight:500;font-stretch:normal;font-family:Roboto;-inkscape-font-specification:'Roboto Medium Italic';fill:url(#linearGradient851);fill-opacity:1;stroke-width:0.37882614"
     id="path915" />
</g>
</svg>
